SVG/ARDR-alt.svg

<svg xmlns="http://www.w3.org/2000/svg" width="595.279" height="595.28" viewBox="0 123.305 595.279 595.28"><path d="M297.64 124.087C133.689 124.087.782 256.994.782 420.945c0 163.953 132.907 296.86 296.858 296.86s296.857-132.907 296.857-296.86c0-163.951-132.906-296.858-296.857-296.858zm-173.979 409.79l172.598-301.509 44.531 76.711-131.06 224.798h-86.069zm92.194 0l70.584-121.287 44.061 54.541-114.645 66.746zm176.268-.068L288.601 407.551l82.651-45.043 100.366 171.301h-79.495z"/></svg>

<svg version="1.1" id="Layer_1" xmlns="http://www.w3.org/2000/svg" xmlns:xlink="http://www.w3.org/1999/xlink" x="0px" y="0px"
	 width="595.279px" height="595.28px" viewBox="0 123.305 595.279 595.28" enable-background="new 0 123.305 595.279 595.28"
	 xml:space="preserve">
<path fill="#000000" d="M297.64,124.087c-163.951,0-296.858,132.907-296.858,296.858c0,163.953,132.907,296.86,296.858,296.86
	c163.951,0,296.857-132.907,296.857-296.86C594.497,256.994,461.591,124.087,297.64,124.087z M123.661,533.877l172.598-301.509
	l44.531,76.711L209.73,533.877H123.661z M215.855,533.877l70.584-121.287l44.061,54.541L215.855,533.877z M392.123,533.809
	L288.601,407.551l82.651-45.043l100.366,171.301H392.123z"/>
</svg>
